neru-dark-classic/22x22/actions/torrents.svg

<?xml version="1.0" encoding="UTF-8" standalone="no"?>
<svg
   xmlns:dc="http://purl.org/dc/elements/1.1/"
   xmlns:cc="http://creativecommons.org/ns#"
   xmlns:rdf="http://www.w3.org/1999/02/22-rdf-syntax-ns#"
   xmlns:svg="http://www.w3.org/2000/svg"
   xmlns="http://www.w3.org/2000/svg"
   xmlns:sodipodi="http://sodipodi.sourceforge.net/DTD/sodipodi-0.dtd"
   xmlns:inkscape="http://www.inkscape.org/namespaces/inkscape"
   width="22"
   height="22"
   version="1.1"
   viewBox="0 0 22 22"
   id="svg7"
   sodipodi:docname="torrents.svg"
   inkscape:version="0.92.1 r">
  <metadata
     id="metadata11">
    <rdf:RDF>
      <cc:Work
         rdf:about="">
        <dc:format>image/svg+xml</dc:format>
        <dc:type
           rdf:resource="http://purl.org/dc/dcmitype/StillImage" />
        <dc:title></dc:title>
      </cc:Work>
    </rdf:RDF>
  </metadata>
  <sodipodi:namedview
     pagecolor="#ffffff"
     bordercolor="#666666"
     borderopacity="1"
     objecttolerance="10"
     gridtolerance="10"
     guidetolerance="10"
     inkscape:pageopacity="0"
     inkscape:pageshadow="2"
     inkscape:window-width="1680"
     inkscape:window-height="964"
     id="namedview9"
     showgrid="false"
     inkscape:zoom="10.727273"
     inkscape:cx="11"
     inkscape:cy="11"
     inkscape:window-x="0"
     inkscape:window-y="0"
     inkscape:window-maximized="1"
     inkscape:current-layer="svg7" />
  <defs
     id="defs3">
    <style
       id="current-color-scheme"
       type="text/css">
   .ColorScheme-Text { color:#5c616c; } .ColorScheme-Highlight { color:#5294e2; }
  </style>
  </defs>
  <path
     style="fill:#d3dae3;fill-opacity:1"
     class="ColorScheme-Text"
     d="M 11,2.9999999 A 8,8 0 0 0 2.9999999,11 8,8 0 0 0 11,19 8,8 0 0 0 19,11 8,8 0 0 0 11,2.9999999 Z m -1.0000001,3.0000003 0,2.9980469 0,0.0098 0,3.9921879 c 0,1 -1,1 -1,1 0,0 -1,0 -1,-1 l 0,-3.9980469 -2,0 4,-3.0019535 z M 13,8.0000001 c 0,0 1,0 1,1 l 0,3.9980469 2,0 L 12,16 l 0,-2.998047 0,-0.0098 0,-3.9921869 c 0,-1 1,-1 1,-1 z"
     id="path5" />
</svg>

<svg xmlns="http://www.w3.org/2000/svg" width="22" height="22" version="1.1" id="svg7"><defs id="defs3"><style id="current-color-scheme" type="text/css"></style></defs><path d="M11 3a8 8 0 0 0-8 8 8 8 0 0 0 8 8 8 8 0 0 0 8-8 8 8 0 0 0-8-8zm-1 3v7c0 1-1 1-1 1s-1 0-1-1V9.002H6L10 6zm3 2s1 0 1 1v3.998h2L12 16V9c0-1 1-1 1-1z" id="path5" fill="#d3dae3" fill-opacity="1" color="#5c616c"/></svg>
